X: 57
T:Da Galley Watch
M:4/4
L:1/8
Q:180
K:D
A|"D"defg afdf-|"A"e2ce Aece|"D"defg afdf|"A7"e-gfe "D"fd- d::
B|"D"ADFD ADDA|ADFD "A"EA,A,E|"D"DEFG AGFG|"A7"Ag fe "D"fd- d:||
